X:1
T:F Pentatonic Scale Walk
C:Exercise
M:4/4
L:1/8
Q:1/4=80
K:F
|: F2 A2 c2 f2 | f2 c2 A2 F2 | G2 B2 d2 g2 | g2 d2 B2 G2 :|
|: F2 A2 c2 A2 | G2 B2 d2 B2 | F4 G4 | F8 :|
